fs/arrow_maximize_vertical_24_regular.svg

<svg viewBox="0 0 24 24" fill="none" xmlns="http://www.w3.org/2000/svg" height="1em" width="1em">
  <path d="M13.7197 5.78033C14.0126 6.07322 14.4874 6.07322 14.7803 5.78033C15.0732 5.48744 15.0732 5.01256 14.7803 4.71967L12.2803 2.21967C11.9874 1.92678 11.5126 1.92678 11.2197 2.21967L8.71967 4.71967C8.42678 5.01256 8.42678 5.48744 8.71967 5.78033C9.01256 6.07322 9.48744 6.07322 9.78033 5.78033L11 4.56066L11 8.75C11 9.16421 11.3358 9.5 11.75 9.5C12.1642 9.5 12.5 9.16421 12.5 8.75V4.56066L13.7197 5.78033ZM4 11.75C4 11.3358 4.33579 11 4.75 11H19.25C19.6642 11 20 11.3358 20 11.75C20 12.1642 19.6642 12.5 19.25 12.5H4.75C4.33579 12.5 4 12.1642 4 11.75ZM12.5 14.75C12.5 14.3358 12.1642 14 11.75 14C11.3358 14 11 14.3358 11 14.75V19.4393L9.78033 18.2197C9.48744 17.9268 9.01256 17.9268 8.71967 18.2197C8.42678 18.5126 8.42678 18.9874 8.71967 19.2803L11.2197 21.7803C11.5126 22.0732 11.9874 22.0732 12.2803 21.7803L14.7803 19.2803C15.0732 18.9874 15.0732 18.5126 14.7803 18.2197C14.4874 17.9268 14.0126 17.9268 13.7197 18.2197L12.5 19.4393V14.75Z" fill="#212121"/>
</svg>

<svg viewBox="0 0 24 24" fill="none" xmlns="http://www.w3.org/2000/svg" height="1em" width="1em">
  <path d="M13.72 5.78a.75.75 0 1 0 1.06-1.06l-2.5-2.5a.75.75 0 0 0-1.06 0l-2.5 2.5a.75.75 0 0 0 1.06 1.06L11 4.56v4.19a.75.75 0 0 0 1.5 0V4.56l1.22 1.22ZM4 11.75a.75.75 0 0 1 .75-.75h14.5a.75.75 0 0 1 0 1.5H4.75a.75.75 0 0 1-.75-.75Zm8.5 3a.75.75 0 0 0-1.5 0v4.69l-1.22-1.22a.75.75 0 0 0-1.06 1.06l2.5 2.5a.75.75 0 0 0 1.06 0l2.5-2.5a.75.75 0 1 0-1.06-1.06l-1.22 1.22v-4.69Z" fill="#212121"/>
</svg>
